dist/svg/cards-duo-tone.svg

<svg xmlns="http://www.w3.org/2000/svg" viewBox="0 0 24 24"><path d="M5.617 3.283q-.873.101-1.552.781a2.74 2.74 0 0 0-.696 1.116l-.109.32v13l.109.32c.151.445.362.783.695 1.116s.672.544 1.116.695l.32.108 3.3.021 3.3.02 1.34.308c1.541.354 1.706.378 2.141.312 1.022-.153 1.887-.848 2.215-1.78.046-.132.707-2.94 1.469-6.24 1.331-5.766 1.385-6.016 1.384-6.4 0-.456-.085-.784-.315-1.225-.299-.572-.836-1.06-1.402-1.276-.128-.049-1.284-.302-2.569-.563-1.286-.261-2.42-.501-2.52-.534a3 3 0 0 0-.463-.101c-.34-.048-7.347-.046-7.763.002m7.748 2.06a.8.8 0 0 1 .353.448c.055.198.053 1.227-.003 1.428-.059.213-.293.441-.513.5a.747.747 0 0 1-.92-.51c-.023-.082-.042-.401-.042-.709s.019-.627.042-.709c.045-.164.2-.368.332-.439a.87.87 0 0 1 .751-.009m3.67.237c.708.142 1.354.294 1.436.336.226.115.448.353.563.601.19.414.228.215-1.265 6.667-.989 4.274-1.39 5.941-1.466 6.09a1.24 1.24 0 0 1-1.108.638l-.211-.012.128-.146c.203-.23.402-.587.519-.934l.109-.32v-6.4c0-3.52-.013-6.485-.029-6.59s-.014-.19.004-.19.613.117 1.32.26M9.958 8.702c.673.415 1.761 1.312 2.188 1.804.815.942 1.097 1.806.826 2.534-.213.571-.712.992-1.356 1.143-.327.078-.898.058-1.171-.04a2 2 0 0 0-.19-.063c-.008 0-.015.136-.015.302 0 .315-.073.529-.226.663-.272.239-.7.262-.959.051-.228-.184-.295-.345-.295-.705a1.7 1.7 0 0 0-.015-.311c-.008 0-.094.028-.19.063-.273.098-.844.118-1.171.04-.644-.151-1.143-.572-1.356-1.143-.408-1.093.412-2.443 2.36-3.888.953-.707 1.09-.746 1.57-.45M8.941 9.989c-.976.729-1.727 1.547-1.937 2.11-.1.267-.105.413-.022.612.09.217.244.358.487.449.482.18 1.082.025 1.548-.4.212-.193.306-.24.483-.24s.271.047.483.24c.213.195.467.339.734.417.745.217 1.439-.211 1.346-.83-.064-.426-.389-.909-1.03-1.529-.422-.409-1.44-1.217-1.533-1.217-.022 0-.274.175-.559.388m-2.576 6.354a.8.8 0 0 1 .353.448c.055.198.053 1.227-.003 1.428-.059.213-.293.441-.513.5a.747.747 0 0 1-.92-.51c-.054-.193-.054-1.225 0-1.418.045-.164.2-.368.332-.439a.87.87 0 0 1 .751-.009" fill-rule="evenodd"/></svg>

<svg fill="none" xmlns="http://www.w3.org/2000/svg" viewBox="0 0 24 24"><path d="M5.617 3.283 C 5.034 3.351,4.519 3.610,4.065 4.064 C 3.732 4.396,3.521 4.735,3.369 5.180 L 3.260 5.500 3.260 12.000 L 3.260 18.500 3.369 18.820 C 3.520 19.265,3.731 19.603,4.064 19.936 C 4.397 20.269,4.736 20.480,5.180 20.631 L 5.500 20.739 8.800 20.760 L 12.100 20.780 13.440 21.088 C 14.981 21.442,15.146 21.466,15.581 21.400 C 16.603 21.247,17.468 20.552,17.796 19.620 C 17.842 19.488,18.503 16.680,19.265 13.380 C 20.596 7.614,20.650 7.364,20.649 6.980 C 20.649 6.524,20.564 6.196,20.334 5.755 C 20.035 5.183,19.498 4.695,18.932 4.479 C 18.804 4.430,17.648 4.177,16.363 3.916 C 15.077 3.655,13.943 3.415,13.843 3.382 C 13.742 3.348,13.534 3.303,13.380 3.281 C 13.040 3.233,6.033 3.235,5.617 3.283 M13.365 5.343 C 13.514 5.419,13.670 5.617,13.718 5.791 C 13.773 5.989,13.771 7.018,13.715 7.219 C 13.656 7.432,13.422 7.660,13.202 7.719 C 12.802 7.827,12.390 7.599,12.282 7.209 C 12.259 7.127,12.240 6.808,12.240 6.500 C 12.240 6.192,12.259 5.873,12.282 5.791 C 12.327 5.627,12.482 5.423,12.614 5.352 C 12.831 5.235,13.147 5.232,13.365 5.343 M17.035 5.580 C 17.743 5.722,18.389 5.874,18.471 5.916 C 18.697 6.031,18.919 6.269,19.034 6.517 C 19.224 6.931,19.262 6.732,17.769 13.184 C 16.780 17.458,16.379 19.125,16.303 19.274 C 16.107 19.661,15.628 19.937,15.195 19.912 L 14.984 19.900 15.112 19.754 C 15.315 19.524,15.514 19.167,15.631 18.820 L 15.740 18.500 15.740 12.100 C 15.740 8.580,15.727 5.615,15.711 5.510 C 15.695 5.405,15.697 5.320,15.715 5.320 C 15.734 5.320,16.328 5.437,17.035 5.580 M9.958 8.702 C 10.631 9.117,11.719 10.014,12.146 10.506 C 12.961 11.448,13.243 12.312,12.972 13.040 C 12.759 13.611,12.260 14.032,11.616 14.183 C 11.289 14.261,10.718 14.241,10.445 14.143 C 10.349 14.108,10.263 14.080,10.255 14.080 C 10.247 14.080,10.240 14.216,10.240 14.382 C 10.240 14.697,10.167 14.911,10.014 15.045 C 9.742 15.284,9.314 15.307,9.055 15.096 C 8.827 14.912,8.760 14.751,8.760 14.391 C 8.760 14.220,8.753 14.080,8.745 14.080 C 8.737 14.080,8.651 14.108,8.555 14.143 C 8.282 14.241,7.711 14.261,7.384 14.183 C 6.740 14.032,6.241 13.611,6.028 13.040 C 5.620 11.947,6.440 10.597,8.388 9.152 C 9.341 8.445,9.478 8.406,9.958 8.702 M8.941 9.989 C 7.965 10.718,7.214 11.536,7.004 12.099 C 6.904 12.366,6.899 12.512,6.982 12.711 C 7.072 12.928,7.226 13.069,7.469 13.160 C 7.951 13.340,8.551 13.185,9.017 12.760 C 9.229 12.567,9.323 12.520,9.500 12.520 C 9.677 12.520,9.771 12.567,9.983 12.760 C 10.196 12.955,10.450 13.099,10.717 13.177 C 11.462 13.394,12.156 12.966,12.063 12.347 C 11.999 11.921,11.674 11.438,11.033 10.818 C 10.611 10.409,9.593 9.601,9.500 9.601 C 9.478 9.601,9.226 9.776,8.941 9.989 M6.365 16.343 C 6.514 16.419,6.670 16.617,6.718 16.791 C 6.773 16.989,6.771 18.018,6.715 18.219 C 6.656 18.432,6.422 18.660,6.202 18.719 C 5.802 18.827,5.390 18.599,5.282 18.209 C 5.228 18.016,5.228 16.984,5.282 16.791 C 5.327 16.627,5.482 16.423,5.614 16.352 C 5.831 16.235,6.147 16.232,6.365 16.343 " stroke="none" fill-rule="evenodd" fill="currentColor"/></svg>
